X:1
T:In the Ark
T:In the Ark
T:Russell Kelso Carter
T:Russell Kelso Carter, 1887
T:Public Domain Courtesy of the Cyber Hymnal™
T:Public Domain Courtesy of the Cyber Hymnal™
C:Russell Kelso Carter
Z:Public Domain
Z:Courtesy of the Cyber Hymnal™
%%score ( 1 2 ) ( 3 4 )
L:1/8
Q:1/4=105
M:4/4
K:F
V:1 treble 
V:2 treble 
V:3 bass 
V:4 bass 
V:1
 (AB) | [Fc]2 [Fc]2 [FA]2 ([FA][Ac]) | ([Ac][GB]) ([GB][FA]) [EG]2 ([EG][FA]) | %3
w: 1.~When *|judg- ment thun- ders *|cloud * the * sky, And *|
w: 2.~Up- *|on the bil- lows *|wide * and * dark, By *|
w: 3.~I’m *|lost with- out, I’m *|safe * with- * in, To *|
w: 4.~The *|bow of prom- ise *|spans * the * sea, The *|
 [GB]2 [GB]2 [EG]2 ([Bd][Ac]) | [FA]6 [Fc]2 | [Fd]2 [Fd]2 [FB]2 [Fd]2 | %6
w: storms are down- ward *|hurled, The|ark of God comes|
w: rag- ing tem- pests *|tossed, The|Sav- ior throws His|
w: wait I can’t af- *|ford; I|en- ter, and there|
w: roll- ing surg- es *|cease; The|heav’n- ly dove brings|
 [Fd]2 [Fc]2 [Fc]2 ([FA][GB]) | [Fc]2 (BA) [EG]2 [CG]2 | [CF]6 ||"^Refrain" [FA][GB] | %10
w: float- ing by To *|save a * drown- ing|world.||
w: pre- cious ark Wide *|o- pen * for the|lost.||
w: shuts me in The *|love of * Christ the|Lord.||
w: back to me The *|ol- ive * branch of|peace.||
 [Fc]2 [Fc]>[Fc] [FA]2 [FA][Ac] | [Ac][GB][GB][FA] [EG]2 [EG][FA] | %12
w: ||
w: ||
w: ||
w: ||
 [GB][GB][EG][FA] [GB][Bd][Ac][GB] | [FA]6 [Fc][Fc] | [Fd]2 [Fd]2 [Ff]2 [Fd][Fd] | %15
w: |||
w: |||
w: |||
w: |||
 [Fd][Fc][Fc][FA] [Fc]2 [FA][GB] | [Ac][Ac][GB][FA] [EG]2 [CG]2 | [CF]6 |] %18
w: |||
w: |||
w: |||
w: |||
V:2
 F2 | x8 | x8 | x8 | x8 | x8 | x8 | x2 F2 x4 | x6 || x2 | x8 | x8 | x8 | x8 | x8 | x8 | x8 | x6 |] %18
V:3
 [F,C]2 | [F,A,]2 [F,A,]2 [F,C]2 [F,C]2 | [C,C]2 [C,C]2 [C,C]2 [C,C]2 | %3
w: ~|~ ~ ~ ~|~ ~ ~ ~|
 [C,C]2 [C,C]2 [C,C]2 [C,C]2 | [F,C]6 [F,A,]2 | B,2 B,2 [B,D]2 [B,,B,]2 | %6
w: ~ ~ ~ ~|~ ~|~ ~ ~ ~|
 [F,B,]2 [F,A,]2 [F,A,]2 [F,C]2 | [A,,C]2 [B,,D]2 [C,C]2 [C,B,]2 | [F,A,]6 || [F,C][F,C] | %10
w: ~ ~ ~ ~|~ ~ ~ ~|~|In the|
 [F,A,]2 [F,A,]>[F,A,] [F,C]2 [F,C][F,C] | [C,C][C,C][C,C][C,C] [C,C]2 [C,C][C,C] | %12
w: ark, in the ark, there is|room for you and me, And a|
 [C,C][C,C][C,C][C,C] [C,C][C,C][C,C][C,C] | [F,C]6 [F,A,][F,A,] | B,2 B,2 [B,D]2 B,B, | %15
w: re- fuge from the o- ver- whelm- ing|flood. ’Tis the|day of grace, Je- sus|
 [F,B,][F,A,][F,A,][F,C] [F,A,]2 [F,C][F,C] | [F,C][F,C][B,,D][C,C] [C,C]2 [C,B,]2 | [F,A,]6 |] %18
w: makes sal- va- tion free, And there’s|safe- ty in the ark of|God.|
V:4
 x2 | x8 | x8 | x8 | x8 | B,2 B,2 x4 | x8 | x8 | x6 || x2 | x8 | x8 | x8 | x8 | B,2 B,2 B,B, x2 | %15
 x8 | x8 | x6 |] %18

